;FLAVOR:Marlin
;TIME:1814
;Filament used: 2.80503m
;Layer height: 0.2
;MINX:71.336
;MINY:84.595
;MINZ:0.2
;MAXX:147.807
;MAXY:134.415
;MAXZ:38.8
;TARGET_MACHINE.NAME:Creality Ender-3 V3 KE
;Generated with Cura_SteamEngine 5.10.2
M140 S60
M105
M190 S60
M220 S100 ;Reset Feedrate
M221 S100 ;Reset Flowrate

G28 ;Home

G92 E0 ;Reset Extruder
G1 Z2.0 F3000 ;Move Z Axis up
G1 X-2.0 Y20 Z0.28 F5000.0 ;Move to start position
M109 S220.0
G1 X-2.0 Y145.0 Z0.28 F1500.0 E15 ;Draw the first line
G1 X-1.7 Y145.0 Z0.28 F5000.0 ;Move to side a little
G1 X-1.7 Y20 Z0.28 F1500.0 E30 ;Draw the second line
G92 E0 ;Reset Extruder
G1 E-1 F1800 ;Retract a bit
G1 Z2.0 F3000 ;Move Z Axis up
G1 E0 F1800
M82 ;absolute extrusion mode
G92 E0
G92 E0
G1 F2400 E-0.8
;LAYER_COUNT:166
;LAYER:0
M107
M204 S500
G0 F18000 X101.828 Y85.45 Z0.2
;TYPE:SKIRT
G1 F2400 E0
G1 F6000 X118.172 Y85.45 E0.5436
G1 X121.901 Y106.564 E1.25673
G1 X121.822 Y106.591 E1.2595
G1 X121.75 Y106.694 E1.26368
G1 X121.746 Y106.75 E1.26555
G1 X121.733 Y106.75 E1.26598
G1 X118.033 Y85.815 E1.97307
G1 X117.974 Y85.705 E1.97723
G1 X117.836 Y85.65 E1.98217
G1 X102.164 Y85.65 E2.50342
G1 X102.045 Y85.689 E2.50759
G1 X101.967 Y85.815 E2.51251
G1 X98.267 Y106.75 E3.21961
G1 X98.256 Y106.75 E3.21997
G1 X98.243 Y106.661 E3.22296
G1 X98.155 Y106.572 E3.22713
G1 X98.1 Y106.559 E3.22901
G1 X101.828 Y85.45 E3.94196
G1 F2400 E3.14196
G0 F18000 X104.45 Y91.85
G1 F2400 E3.94196
G1 F6000 X115.55 Y91.85 E4.31115
G1 X115.55 Y113.25 E5.02291
G1 X104.45 Y113.25 E5.3921
G1 X104.45 Y91.85 E6.10387
G0 F18000 X104.85 Y92.25
G1 F6000 X105.244 Y92.25 E6.11697
G1 X105.039 Y92.424 E6.12592
G1 X104.955 Y92.511 E6.12994
G1 X104.85 Y92.645 E6.1356
G1 X104.85 Y92.25 E6.14874
G0 F18000 X105.298 Y92.729
G1 F6000 X105.27 Y92.758 E6.15008
G1 X105.025 Y93.071 E6.1633
G1 X105.003 Y93.104 E6.16462
G1 X104.822 Y93.465 E6.17805
G1 X104.808 Y93.502 E6.17937
G1 X104.7 Y93.894 E6.19289
G1 X104.694 Y93.926 E6.19397
G1 X104.651 Y94.338 E6.20775
G1 X104.65 Y94.359 E6.20845
G1 X104.65 Y110.841 E6.75664
G1 X104.652 Y110.871 E6.75764
G1 X104.712 Y111.273 E6.77116
G1 X104.719 Y111.303 E6.77219
G1 X104.837 Y111.679 E6.78529
G1 X104.853 Y111.716 E6.78663
G1 X105.048 Y112.066 E6.79996
G1 X105.071 Y112.098 E6.80127
G1 X105.329 Y112.402 E6.81453
G1 X105.358 Y112.43 E6.81587
G1 X105.671 Y112.675 E6.82909
G1 X105.704 Y112.697 E6.83041
G1 X106.061 Y112.877 E6.84371
G1 X106.095 Y112.89 E6.84492
G1 X106.455 Y112.996 E6.8574
G1 X106.491 Y113.003 E6.85862
G1 X106.941 Y113.049 E6.87367
G1 X106.961 Y113.05 E6.87433
G1 X113.139 Y113.05 E7.07982
G1 X113.168 Y113.048 E7.08078
G1 X113.572 Y112.988 E7.09437
G1 X113.603 Y112.981 E7.09542
G1 X113.979 Y112.863 E7.10853
G1 X114.016 Y112.847 E7.10987
G1 X114.366 Y112.652 E7.1232
G1 X114.398 Y112.629 E7.12451
G1 X114.702 Y112.371 E7.13777
G1 X114.73 Y112.342 E7.13911
G1 X114.975 Y112.029 E7.15233
G1 X114.997 Y111.996 E7.15365
G1 X115.177 Y111.639 E7.16695
G1 X115.19 Y111.605 E7.16816
G1 X115.296 Y111.244 E7.18067
G1 X115.303 Y111.208 E7.18189
G1 X115.349 Y110.759 E7.1969
G1 X115.35 Y110.739 E7.19757
G1 X115.35 Y94.254 E7.74586
G1 X115.348 Y94.226 E7.7468
G1 X115.294 Y93.849 E7.75946
G1 X115.287 Y93.818 E7.76052
G1 X115.17 Y93.441 E7.77365
G1 X115.155 Y93.405 E7.77495
G1 X114.964 Y93.051 E7.78833
G1 X114.941 Y93.018 E7.78966
G1 X114.682 Y92.709 E7.80307
G1 X114.654 Y92.681 E7.80439
G1 X114.344 Y92.434 E7.81757
G1 X114.31 Y92.412 E7.81892
G1 X113.953 Y92.23 E7.83225
G1 X113.919 Y92.216 E7.83347
G1 X113.549 Y92.105 E7.84632
G1 X113.513 Y92.098 E7.84754
G1 X113.06 Y92.051 E7.86269
G1 X113.039 Y92.05 E7.86339
G1 X106.861 Y92.05 E8.06887
G1 X106.832 Y92.052 E8.06983
G1 X106.428 Y92.112 E8.08342
G1 X106.397 Y92.119 E8.08448
G1 X106.021 Y92.237 E8.09758
G1 X105.984 Y92.253 E8.09892
G1 X105.634 Y92.448 E8.11225
G1 X105.602 Y92.471 E8.11356
G1 X105.298 Y92.729 E8.12682
G1 F2400 E7.32682
G0 F18000 X109.786 Y92.315
G0 X109.786 Y88.772
G1 F2400 E8.12682
G1 F6000 X109.753 Y88.671 E8.13036
G1 X109.765 Y88.561 E8.13404
G1 X109.775 Y88.537 E8.1349
G1 X109.836 Y88.469 E8.13794
G1 X109.949 Y88.409 E8.1422
G1 X110.009 Y88.406 E8.14419
G1 X110.112 Y88.423 E8.14767
G1 X110.14 Y88.439 E8.14874
G1 X110.218 Y88.525 E8.1526
G1 X110.231 Y88.557 E8.15375
G1 X110.241 Y88.708 E8.15878
G1 X110.23 Y88.736 E8.15978
G1 X110.199 Y88.792 E8.16191
G1 X110.136 Y88.863 E8.16507
G1 X110.093 Y88.883 E8.16665
G1 X110.056 Y88.893 E8.16792
G1 X110.022 Y88.896 E8.16906
G1 X109.947 Y88.889 E8.17156
G1 X109.883 Y88.871 E8.17377
G1 X109.876 Y88.868 E8.17403
G1 X109.786 Y88.772 E8.1784
G1 F2400 E7.3784
G0 F18000 X109.786 Y92.315
G0 X114.755 Y92.315
G0 X114.755 Y92.25
G1 F2400 E8.1784
G1 F6000 X115.15 Y92.25 E8.19154
G1 X115.15 Y92.644 E8.20464
G1 X114.989 Y92.452 E8.21298
G1 X114.903 Y92.368 E8.21698
G1 X114.755 Y92.25 E8.22327
G1 F2400 E7.42327
G0 F18000 X114.755 Y92.315
G0 X115.085 Y112.455
G0 X115.15 Y112.455
G1 F2400 E8.22327
G1 F6000 X115.15 Y112.85 E8.23641
G1 X114.756 Y112.85 E8.24951
G1 X114.961 Y112.676 E8.25846
G1 X115.045 Y112.589 E8.26248
G1 X115.15 Y112.455 E8.26814
G1 F2400 E7.46814
G0 F18000 X115.085 Y112.455
G0 X110.218 Y112.785
G0 X110.218 Y116.325
G1 F2400 E8.26814
G1 F6000 X110.242 Y116.377 E8.27005
G1 X110.251 Y116.448 E8.27243
G1 X110.22 Y116.567 E8.27652
G1 X110.214 Y116.58 E8.27699
G1 X110.124 Y116.669 E8.2812
G1 X110.091 Y116.684 E8.28241
G1 X109.96 Y116.69 E8.28677
G1 X109.834 Y116.635 E8.29134
G1 X109.811 Y116.61 E8.29247
G1 X109.763 Y116.531 E8.29555
G1 X109.754 Y116.449 E8.29829
G1 X109.758 Y116.408 E8.29966
G1 X109.775 Y116.343 E8.3019
G1 X109.793 Y116.304 E8.30332
G1 X109.802 Y116.291 E8.30385
G1 X109.823 Y116.273 E8.30477
G1 X109.936 Y116.21 E8.30907
G1 X110.039 Y116.199 E8.31252
G1 X110.067 Y116.204 E8.31347
G1 X110.127 Y116.233 E8.31568
G1 X110.218 Y116.325 E8.31999
G1 F2400 E7.51999
G0 F18000 X110.218 Y112.785
G0 X105.245 Y112.785
G0 X105.245 Y112.85
G1 F2400 E8.31999
G1 F6000 X104.85 Y112.85 E8.33312
G1 X104.85 Y112.456 E8.34623
G1 X105.024 Y112.661 E8.35517
G1 X105.111 Y112.745 E8.35919
G1 X105.245 Y112.85 E8.36486
G0 F18000 X104.05 Y113.65
;TYPE:SUPPORT-INTERFACE
G1 F6000 X115.95 Y113.65 E8.76065
G1 X115.95 Y91.45 E9.49903
G1 X104.05 Y91.45 E9.89482
G1 X104.05 Y113.65 E10.6332
G1 F2400 E9.8332
G0 F18000 X103.45 Y117.85
G1 F2400 E10.6332
G1 F6000 X102.965 Y108.296 E10.95137
G1 X98.884 Y106.75 E11.09652
G1 X98.674 Y106.75 E11.10351
G1 X102.332 Y86.05 E11.80266
G1 X117.668 Y86.05 E12.31274
G1 X121.326 Y106.75 E13.01189
G1 X121.116 Y106.75 E13.01887
G1 X117.035 Y108.296 E13.16402
G1 X116.55 Y117.85 E13.4822
G1 X103.45 Y117.85 E13.9179
G1 F2400 E13.1179
G0 F18000 X109.374 Y116.648
G1 F2400 E13.9179
G1 F6000 X109.397 Y116.698 E13.91973
G1 X109.486 Y116.847 E13.92551
G1 X109.598 Y116.969 E13.93102
G1 X109.672 Y117.001 E13.9337
G1 X109.887 Y117.094 E13.94149
G1 X110.186 Y117.08 E13.95144
G1 X110.354 Y117.003 E13.95759
G1 X110.519 Y116.842 E13.96526
G1 X110.546 Y116.815 E13.96653
G1 X110.6 Y116.697 E13.97084
G1 X110.657 Y116.476 E13.97844
G1 X110.633 Y116.271 E13.9853
G1 X110.553 Y116.096 E13.9917
G1 X110.365 Y115.904 E14.00064
G1 X110.189 Y115.819 E14.00714
G1 X110.093 Y115.801 E14.01039
G1 X110.052 Y115.794 E14.01177
G1 X109.811 Y115.822 E14.01984
G1 X109.596 Y115.942 E14.02803
G1 X109.526 Y116 E14.03105
G1 X109.484 Y116.047 E14.03315
G1 X109.442 Y116.111 E14.0357
G1 X109.398 Y116.207 E14.03921
G1 X109.362 Y116.342 E14.04386
G1 X109.352 Y116.454 E14.0476
G1 X109.374 Y116.648 E14.05409
G1 F2400 E13.25409
G0 F18000 X109.374 Y112.785
G0 X110.023 Y92.315
G0 X110.023 Y89.298
G1 F2400 E14.05409
G1 F6000 X110.128 Y89.287 E14.0576
G1 X110.226 Y89.261 E14.06097
G1 X110.334 Y89.213 E14.0649
G1 X110.361 Y89.199 E14.06592
G1 X110.411 Y89.157 E14.06809
G1 X110.526 Y89.025 E14.07391
G1 X110.596 Y88.901 E14.07865
G1 X110.633 Y88.799 E14.08225
G1 X110.644 Y88.75 E14.08392
G1 X110.627 Y88.467 E14.09335
G1 X110.574 Y88.34 E14.09793
G1 X110.556 Y88.303 E14.0993
G1 X110.392 Y88.122 E14.10742
G1 X110.354 Y88.101 E14.10887
G1 X110.265 Y88.051 E14.11226
G1 X110.212 Y88.035 E14.1141
G1 X110.029 Y88.004 E14.12028
G1 X109.881 Y88.012 E14.12521
G1 X109.823 Y88.024 E14.12718
G1 X109.584 Y88.15 E14.13616
G1 X109.435 Y88.317 E14.14361
G1 X109.373 Y88.459 E14.14876
G1 X109.347 Y88.714 E14.15729
G1 X109.434 Y88.979 E14.16656
G1 X109.639 Y89.199 E14.17656
G1 X109.746 Y89.249 E14.18049
G1 X109.872 Y89.283 E14.18483
G1 X110.023 Y89.298 E14.18988
G1 F2400 E13.38988
G0 F18000 X110.023 Y92.315
G0 X104.915 Y109.048
G0 X103.526 Y109.048
G1 F2400 E14.18988
G1 F3840 X103.545 Y109.814 E14.2297
G1 F4095.6 X103.564 Y110.58 E14.26704
G1 F4379.6 X103.584 Y111.345 E14.30191
G1 F4705.9 X103.603 Y112.111 E14.3344
G1 F5084.7 X103.622 Y112.877 E14.36447
G1 F5542.7 X103.641 Y113.643 E14.39206
G1 F2400 E13.59206
G0 F18000 X104.903 Y112.797
G0 X115.097 Y112.797
G0 X116.355 Y113.641
G1 F2400 E14.39206
G1 F5555.6 X116.374 Y112.876 E14.41955
G1 F5095.5 X116.394 Y112.111 E14.44952
G1 F4705.9 X116.413 Y111.346 E14.48197
G1 F4363.6 X116.433 Y110.582 E14.51692
G1 F4074.7 X116.452 Y109.817 E14.5544
G1 F3821.7 X116.472 Y109.052 E14.59436
G0 F18000 X116.15 Y107.861
G1 F6000 X120.542 Y103.47 E14.80092
G1 X120.565 Y103.595
G1 X116.15 Y99.18 E15.00859
G0 F18000 X116.15 Y97.679
G1 F6000 X119.013 Y94.816 E15.14326
G0 F18000 X119.108 Y95.349
G1 F6000 X116.15 Y92.391 E15.28239
G0 F18000 X115.791 Y91.25
G1 F6000 X117.993 Y89.047 E15.38599
G0 F18000 X117.651 Y87.104
G1 F6000 X116.797 Y86.25 E15.42616
G0 F18000 X117.397 Y86.25
G1 F6000 X112.397 Y91.25 E15.66135
G0 F18000 X111.615 Y91.25
G1 F6000 X109.83 Y89.465 E15.74531
G0 F18000 X109.166 Y88.801
G1 F6000 X106.615 Y86.25 E15.8653
G0 F18000 X107.214 Y86.25
G1 F6000 X101.488 Y91.976 E16.13463
G0 F18000 X101.588 Y91.406
G1 F6000 X103.851 Y93.668 E16.24105
G0 F18000 X103.85 Y93.009
G1 F6000 X100.76 Y96.099 E16.3864
G0 F18000 X100.569 Y97.175
G1 F6000 X103.851 Y100.457 E16.54077
G0 F18000 X103.85 Y99.797
G1 F6000 X99.303 Y104.344 E16.75465
G0 F18000 X99.549 Y102.943
G1 F6000 X103.851 Y107.245 E16.957
G0 F18000 X103.85 Y106.585
G1 F6000 X102.521 Y107.914 E17.01951
G1 F2400 E16.21951
G0 F18000 X100.277 Y107.065
G1 F2400 E17.01951
G1 F6000 X99.04 Y105.828 E17.0777
G0 F18000 X100.058 Y106.983
G1 F6000 X103.85 Y103.191 E17.25606
G0 F18000 X103.851 Y103.851
G1 F6000 X100.059 Y100.059 E17.43443
G1 X100.032 Y100.221
G1 X103.85 Y96.403 E17.61401
G0 F18000 X103.851 Y97.062
G1 F6000 X101.079 Y94.291 E17.74438
G1 F2400 E16.94438
G0 F18000 X104.826 Y91.25
G1 F2400 E17.74438
G1 F6000 X102.098 Y88.521 E17.87272
G0 F18000 X102.217 Y87.854
G1 F6000 X103.82 Y86.25 E17.94814
G0 F18000 X103.221 Y86.25
G1 F6000 X108.221 Y91.25 E18.18333
G0 F18000 X109.003 Y91.25
G1 F6000 X114.003 Y86.25 E18.41851
G0 F18000 X113.403 Y86.25
G1 F6000 X118.38 Y91.227 E18.65261
G0 F18000 X118.503 Y91.932
G1 F6000 X116.15 Y94.285 E18.76329
G0 F18000 X116.15 Y95.785
G1 F6000 X119.837 Y99.472 E18.93672
G0 F18000 X120.033 Y100.585
G1 F6000 X116.15 Y104.467 E19.11934
G0 F18000 X116.15 Y105.968
G1 F6000 X117.927 Y107.745 E19.20292
G1 F2400 E18.40292
G0 F18000 X120.39 Y106.813
G1 F2400 E19.20292
G1 F6000 X116.15 Y102.574 E19.40233
G0 F18000 X116.15 Y101.073
G1 F6000 X119.523 Y97.7 E19.56099
G1 F2400 E18.76099
G0 F18000 X115.009 Y91.25
G1 F2400 E19.56099
G1 F6000 X110.009 Y86.25 E19.79618
G0 F18000 X110.608 Y86.25
G1 F6000 X105.609 Y91.25 E20.03134
G1 F2400 E19.23134
G0 F18000 X120.714 Y106.692
G1 F2400 E20.03134
G1 F6000 X121.052 Y106.354 E20.04723
G1 F2400 E19.24723
G0 F18000 X116.531 Y114.268
G1 F2400 E20.04723
G1 F6000 X113.15 Y117.65 E20.20629
G0 F18000 X114.256 Y117.65
G1 F6000 X110.456 Y113.851 E20.38501
G0 F18000 X110.162 Y113.85
G1 F6000 X106.362 Y117.65 E20.56375
G0 F18000 X107.468 Y117.65
G1 F6000 X103.668 Y113.851 E20.74246
G1 F2400 E19.94246
G0 F18000 X104.903 Y112.797
G0 X106.767 Y112.785
G0 X106.767 Y113.85
G1 F2400 E20.74246
G1 F6000 X103.608 Y117.009 E20.89105
G1 X103.617 Y117.194
G1 X104.073 Y117.65 E20.9125
G1 F2400 E20.1125
G0 F18000 X107.062 Y113.851
G1 F2400 E20.9125
G1 F6000 X109.259 Y116.048 E21.01584
G0 F18000 X110.123 Y117.283
G1 F6000 X109.756 Y117.65 E21.03311
G0 F18000 X110.41 Y117.198
G1 F6000 X110.862 Y117.65 E21.05437
G0 F18000 X110.841 Y116.564
G1 F6000 X113.556 Y113.85 E21.18205
G0 F18000 X113.851 Y113.851
G1 F6000 X116.422 Y116.422 E21.30298
G1 F2400 E20.50298
;MESH:FrontCover_1x.stl
G0 F18000 X123.366 Y128.905
;TYPE:WALL-INNER
G1 F2400 E21.30298
G1 F4159.4 X123.06 Y129.291 E21.32661
G1 F4203.2 X122.749 Y129.607 E21.34766
G1 F2400 E20.54766
G0 F18000 X131.67 Y113.977
G1 F2400 E21.34766
G1 F6000 X131.279 Y113.887 E21.36101
G1 X130.825 Y113.671 E21.37773
G1 X130.475 Y113.407 E21.39231
G1 X130.161 Y113.057 E21.40795
G1 X129.827 Y112.435 E21.43143
G1 X129.728 Y111.74 E21.45478
G1 X129.816 Y111.194 E21.47318
G1 X129.995 Y110.682 E21.49122
G1 X130.345 Y110.218 E21.51055
G1 X130.776 Y109.831 E21.52981
G1 X131.29 Y109.61 E21.54842
G1 X131.777 Y109.507 E21.56498
G1 X132.326 Y109.517 E21.58324
G1 X132.723 Y109.614 E21.59683
G1 X133.168 Y109.821 E21.61316
G1 X133.528 Y110.09 E21.6281
G1 X133.911 Y110.524 E21.64736
G1 X134.168 Y111.128 E21.66919
G1 X134.251 Y111.631 E21.68614
G1 X134.224 Y112.085 E21.70127
G1 X134.135 Y112.47 E21.71441
G1 X133.924 Y112.923 E21.73103
G1 X133.654 Y113.275 E21.74579
G1 X133.312 Y113.583 E21.7611
G1 X132.787 Y113.868 E21.78097
G1 X132.581 Y113.935 E21.78817
G1 X132.108 Y113.999 E21.80405
G1 X131.67 Y113.977 E21.81863
G1 F2400 E21.01863
G0 F18000 X143.283 Y113.731
G1 F2400 E21.81863
G1 F6000 X142.815 Y113.497 E21.83604
G1 X142.638 Y113.363 E21.84342
G1 X142.338 Y113.031 E21.8583
G1 X142.126 Y112.705 E21.87124
G1 X141.944 Y112.238 E21.88791
G1 X141.904 Y112.02 E21.89528
G1 X141.904 Y111.53 E21.91158
G1 X142.019 Y111.03 E21.92864
G1 X142.251 Y110.567 E21.94586
G1 X142.383 Y110.392 E21.95316
G1 X142.795 Y110.016 E21.97171
G1 X142.978 Y109.902 E21.97888
G1 X143.423 Y109.725 E21.99481
G1 X143.801 Y109.654 E22.0076
G1 X144.301 Y109.672 E22.02424
G1 X144.719 Y109.773 E22.03854
G1 X145.268 Y110.042 E22.05888
G1 X145.705 Y110.522 E22.08047
G1 X145.911 Y110.872 E22.09397
G1 X146.091 Y111.38 E22.1119
G1 X146.089 Y112.118 E22.13645
G1 X145.871 Y112.713 E22.15752
G1 X145.565 Y113.148 E22.17521
G1 X145.101 Y113.565 E22.19596
G1 X144.382 Y113.839 E22.22155
G1 X143.784 Y113.84 E22.24144
G1 X143.283 Y113.731 E22.2585
G1 F2400 E21.4585
G0 F18000 X100.27 Y133.148
G1 F2400 E22.2585
G1 F6000 X119.73 Y133.147 E22.90574
G1 X122.361 Y130.188 E23.03743
G1 F5263.2 X122.67 Y129.756 E23.05757
G1 F4332.1 X122.749 Y129.607 E23.06534
G1 F4395.6 X121.958 Y129.927 E23.10408
G1 F5084.7 X121.312 Y130.014 E23.12966
G1 F5660.4 X120.804 Y129.942 E23.14775
G1 F6000 X120.248 Y129.736 E23.16747
G1 X119.847 Y129.449 E23.18387
G1 X119.551 Y129.151 E23.19784
G1 X119.272 Y128.694 E23.21565
G1 X119.132 Y128.297 E23.22965
G1 X119.062 Y127.752 E23.24793
G1 X119.132 Y127.202 E23.26637
G1 X119.27 Y126.812 E23.28013
G1 X119.621 Y126.258 E23.30194
G1 X120.12 Y125.825 E23.32391
G1 X120.612 Y125.612 E23.34175
G1 X121.24 Y125.475 E23.36313
G1 X121.997 Y125.578 E23.38854
G1 X122.536 Y125.855 E23.40869
G1 X122.858 Y126.1 E23.42215
G1 X123.213 Y126.524 E23.44054
G1 X123.51 Y127.14 E23.46329
G1 X123.583 Y127.824 E23.48617
G1 X123.474 Y128.386 E23.50521
G1 F5970.1 X123.436 Y128.515 E23.5097
G1 F4743.1 X123.366 Y128.905 E23.52637
G1 X123.696 Y128.682 E23.54313
G1 F5970.1 X135.564 Y115.335 E24.14014
G1 F6000 X135.735 Y115.209 E24.1472
G1 X135.948 Y115.15 E24.15455
G1 X144.065 Y115.148 E24.42453
G1 X144.431 Y115.119 E24.43674
G1 X144.75 Y115.066 E24.44749
G1 X145.169 Y114.938 E24.46206
G1 X145.471 Y114.814 E24.47292
G1 X145.777 Y114.644 E24.48457
G1 X146.054 Y114.456 E24.4957
G1 X146.363 Y114.198 E24.50909
G1 X146.669 Y113.861 E24.52423
G1 X146.854 Y113.595 E24.53501
G1 X147.031 Y113.296 E24.54656
G1 X147.225 Y112.839 E24.56307
G1 X147.352 Y112.34 E24.5802
G1 X147.388 Y112.009 E24.59127
G1 X147.395 Y111.678 E24.60229
G1 X147.371 Y111.318 E24.61429
G1 X147.31 Y110.98 E24.62571
G1 X147.223 Y110.656 E24.63687
G1 X147.032 Y110.205 E24.65316
G1 X146.853 Y109.905 E24.66478
