;FLAVOR:Marlin
;TIME:1600
;Filament used: 5.59032m
;Layer height: 0.2
;MINX:56.335
;MINY:79.836
;MINZ:0.2
;MAXX:162.799
;MAXY:140.163
;MAXZ:6.92
;TARGET_MACHINE.NAME:Creality Ender-3 V3 KE
;Generated with Cura_SteamEngine 5.10.2
M140 S60
M105
M190 S60
M220 S100 ;Reset Feedrate
M221 S100 ;Reset Flowrate

G28 ;Home

G92 E0 ;Reset Extruder
G1 Z2.0 F3000 ;Move Z Axis up
G1 X-2.0 Y20 Z0.28 F5000.0 ;Move to start position
M109 S220.0
G1 X-2.0 Y145.0 Z0.28 F1500.0 E15 ;Draw the first line
G1 X-1.7 Y145.0 Z0.28 F5000.0 ;Move to side a little
G1 X-1.7 Y20 Z0.28 F1500.0 E30 ;Draw the second line
G92 E0 ;Reset Extruder
G1 E-1 F1800 ;Retract a bit
G1 Z2.0 F3000 ;Move Z Axis up
G1 E0 F1800
M82 ;absolute extrusion mode
G92 E0
G92 E0
G1 F2400 E-0.8
;LAYER_COUNT:29
;LAYER:0
M107
M204 S500
;MESH:LidarPlate_1x.stl
G0 F18000 X63.381 Y88.587 Z0.2
;TYPE:WALL-INNER
G1 F2400 E0
G1 F6000 X62.785 Y88.593 E0.01982
G1 X62.291 Y88.479 E0.03669
G1 X61.943 Y88.316 E0.04947
G1 X61.612 Y88.079 E0.06301
G1 X61.328 Y87.775 E0.07684
G1 X61.125 Y87.461 E0.08928
G1 X60.904 Y86.875 E0.11011
G1 X60.904 Y86.285 E0.12973
G1 X61.018 Y85.78 E0.14695
G1 X61.21 Y85.404 E0.161
G1 X61.508 Y84.985 E0.1781
G1 X62.033 Y84.628 E0.19921
G1 X62.62 Y84.404 E0.22011
G1 X63.218 Y84.404 E0.24
G1 X63.707 Y84.517 E0.25669
G1 X64.063 Y84.682 E0.26974
G1 X64.512 Y85.01 E0.28824
G1 X64.867 Y85.53 E0.30918
G1 X65.092 Y86.121 E0.33021
G1 X65.09 Y86.708 E0.34974
G1 X65.02 Y87.072 E0.36206
G1 X64.82 Y87.542 E0.37905
G1 X64.491 Y88.009 E0.39805
G1 X63.967 Y88.367 E0.41916
G1 X63.381 Y88.587 E0.43998
G1 F2400 E-0.36002
G0 F18000 X82.198 Y93.752
G1 F2400 E0.43998
G1 F6000 X81.566 Y93.696 E0.46108
G1 X80.858 Y93.342 E0.48741
G1 X80.433 Y92.87 E0.50853
G1 X80.119 Y92.268 E0.53112
G1 X80.027 Y91.557 E0.55496
G1 X80.174 Y90.923 E0.57661
G1 X80.457 Y90.359 E0.5976
G1 X80.862 Y89.989 E0.61584
G1 X81.191 Y89.773 E0.62893
G1 X81.771 Y89.556 E0.64953
G1 X82.364 Y89.556 E0.66925
G1 X82.862 Y89.671 E0.68625
G1 X83.431 Y89.958 E0.70745
G1 X83.845 Y90.408 E0.72778
G1 X84.025 Y90.697 E0.73911
G1 X84.239 Y91.275 E0.75961
G1 X84.239 Y91.843 E0.7785
G1 X84.129 Y92.353 E0.79585
G1 X83.846 Y92.929 E0.8172
G1 X83.273 Y93.451 E0.84298
G1 X82.697 Y93.678 E0.86357
G1 X82.198 Y93.752 E0.88035
G1 F2400 E0.08035
G0 F18000 X82.188 Y135.448
G1 F2400 E0.88035
G1 F6000 X81.679 Y135.406 E0.89734
G1 X81.465 Y135.346 E0.90473
G1 X80.965 Y135.098 E0.92329
G1 X80.786 Y134.963 E0.93075
G1 X80.437 Y134.577 E0.94806
G1 X80.113 Y133.957 E0.97132
G1 X80.029 Y133.263 E0.99457
G1 X80.17 Y132.625 E1.01631
G1 X80.453 Y132.063 E1.03724
G1 X80.918 Y131.643 E1.05808
G1 X81.17 Y131.488 E1.06792
G1 X81.767 Y131.257 E1.08921
G1 X82.368 Y131.256 E1.1092
G1 X82.853 Y131.367 E1.12574
G1 X83.419 Y131.647 E1.14675
G1 X83.841 Y132.102 E1.16739
G1 X84.03 Y132.414 E1.17952
G1 X84.237 Y132.964 E1.19907
G1 X84.24 Y133.564 E1.21902
G1 X84.131 Y134.06 E1.23591
G1 X83.847 Y134.629 E1.25706
G1 X83.349 Y135.084 E1.2795
G1 X83.161 Y135.2 E1.28685
G1 X82.668 Y135.391 E1.30443
G1 X82.188 Y135.448 E1.32051
G1 F2400 E0.52051
G0 F18000 X63.375 Y131.592
G1 F2400 E1.32051
G1 F6000 X62.782 Y131.592 E1.34023
G1 X62.29 Y131.478 E1.35703
G1 X61.943 Y131.316 E1.36977
G1 X61.612 Y131.079 E1.38331
G1 X61.328 Y130.775 E1.39714
G1 X61.125 Y130.461 E1.40958
G1 X60.904 Y129.875 E1.43041
G1 X60.904 Y129.285 E1.45003
G1 X61.018 Y128.78 E1.46725
G1 X61.21 Y128.404 E1.4813
G1 X61.507 Y127.986 E1.49835
G1 X62.03 Y127.629 E1.51941
G1 X62.624 Y127.403 E1.54055
G1 X63.221 Y127.408 E1.56041
G1 X63.692 Y127.515 E1.57647
G1 X64.045 Y127.675 E1.58936
G1 X64.517 Y128.017 E1.60875
G1 X64.864 Y128.526 E1.62924
G1 X65.091 Y129.12 E1.65039
G1 X65.09 Y129.698 E1.66961
G1 X65.019 Y130.073 E1.68231
G1 X64.821 Y130.539 E1.69915
G1 X64.495 Y131.009 E1.71817
G1 X63.969 Y131.368 E1.73935
G1 X63.375 Y131.592 E1.76047
G1 F2400 E0.96047
G0 F18000 X110 Y138.896
G1 F2400 E1.76047
G1 F6000 X161.044 Y138.896 E3.4582
G1 X161.388 Y138.841 E3.46978
G1 X161.817 Y138.641 E3.48553
G1 X162.166 Y138.287 E3.50206
G1 X162.32 Y137.967 E3.51387
G1 X162.396 Y137.662 E3.52433
G1 X162.399 Y82.417 E5.36178
G1 X162.354 Y82.155 E5.37063
G1 X162.242 Y81.858 E5.38118
G1 X162.102 Y81.629 E5.39011
G1 X161.876 Y81.415 E5.40046
G1 X161.566 Y81.224 E5.41257
G1 X161.337 Y81.142 E5.42066
G1 X161.056 Y81.101 E5.43011
G1 X58.942 Y81.1 E8.82643
G1 X58.644 Y81.146 E8.83646
G1 X58.401 Y81.225 E8.84496
G1 X58.099 Y81.428 E8.85706
G1 X57.914 Y81.618 E8.86588
G1 X57.725 Y81.928 E8.87796
G1 X57.641 Y82.162 E8.88623
G1 X57.6 Y82.441 E8.89561
G1 X57.6 Y137.56 E10.72887
G1 X57.697 Y138.01 E10.74418
G1 X57.8 Y138.218 E10.7519
G1 X58.029 Y138.501 E10.76401
G1 X58.389 Y138.782 E10.7792
G1 X58.835 Y138.896 E10.79451
G1 X110 Y138.896 E12.49627
G1 F2400 E11.69627
G0 F18000 X123.888 Y135.448
G1 F2400 E12.49627
G1 F6000 X123.379 Y135.406 E12.51325
G1 X123.165 Y135.346 E12.52065
G1 X122.665 Y135.098 E12.53921
G1 X122.486 Y134.963 E12.54667
G1 X122.137 Y134.577 E12.56397
G1 X121.813 Y133.957 E12.58724
G1 X121.729 Y133.263 E12.61049
G1 X121.864 Y132.652 E12.6313
G1 X122.146 Y132.075 E12.65267
G1 X122.592 Y131.663 E12.67286
G1 X122.899 Y131.47 E12.68492
G1 X123.48 Y131.257 E12.7055
G1 X124.063 Y131.256 E12.72489
G1 X124.546 Y131.365 E12.74136
G1 X125.129 Y131.652 E12.76297
G1 X125.527 Y132.085 E12.78254
G1 X125.718 Y132.388 E12.79445
G1 X125.936 Y132.961 E12.81484
G1 X125.941 Y133.563 E12.83486
G1 X125.831 Y134.061 E12.85183
G1 X125.547 Y134.629 E12.87295
G1 X125.049 Y135.084 E12.89538
G1 X124.861 Y135.2 E12.90273
G1 X124.368 Y135.391 E12.92032
G1 X123.888 Y135.448 E12.93639
G1 F2400 E12.13639
G0 F18000 X142.782 Y131.592
G1 F2400 E12.93639
G1 F6000 X142.291 Y131.479 E12.95315
G1 X141.943 Y131.316 E12.96593
G1 X141.611 Y131.078 E12.97952
G1 X141.324 Y130.769 E12.99354
G1 X141.127 Y130.457 E13.00582
G1 X140.907 Y129.876 E13.02648
G1 X140.905 Y129.306 E13.04544
G1 X141.018 Y128.783 E13.06324
G1 X141.172 Y128.466 E13.07496
G1 X141.507 Y127.985 E13.09445
G1 X142.05 Y127.623 E13.11616
G1 X142.63 Y127.403 E13.13679
G1 X143.217 Y127.404 E13.15631
G1 X143.685 Y127.513 E13.1723
G1 X144.044 Y127.675 E13.1854
G1 X144.509 Y128.013 E13.20452
G1 X144.87 Y128.536 E13.22565
G1 X145.09 Y129.122 E13.24647
G1 X145.091 Y129.686 E13.26523
G1 X145.019 Y130.073 E13.27832
G1 X144.821 Y130.539 E13.29516
G1 X144.495 Y131.009 E13.31419
G1 X143.969 Y131.368 E13.33537
G1 X143.375 Y131.592 E13.35648
G1 X142.782 Y131.592 E13.37621
G1 F2400 E12.57621
G0 F18000 X151.483 Y115.34
G1 F2400 E13.37621
G1 F6000 X150.92 Y115.29 E13.39501
G1 X150.562 Y115.236 E13.40705
G1 X150.192 Y115.159 E13.41962
G1 X149.83 Y115.069 E13.43202
G1 X149.498 Y114.963 E13.44362
G1 X148.987 Y114.768 E13.46181
G1 X148.662 Y114.622 E13.47366
G1 X148.33 Y114.451 E13.48608
G1 X148.007 Y114.263 E13.49851
G1 X147.552 Y113.964 E13.51662
G1 X147.134 Y113.64 E13.53421
G1 X146.712 Y113.257 E13.55316
G1 X146.459 Y113 E13.56516
G1 X146.212 Y112.716 E13.57768
G1 X145.977 Y112.423 E13.59017
G1 X145.668 Y111.983 E13.60805
G1 X145.478 Y111.671 E13.6202
G1 X145.153 Y111.037 E13.6439
G1 X145.017 Y110.715 E13.65552
G1 X144.878 Y110.329 E13.66917
G1 X144.775 Y109.994 E13.68082
G1 X144.678 Y109.624 E13.69355
G1 X144.575 Y109.072 E13.71222
G1 X144.537 Y108.736 E13.72347
G1 X144.508 Y108.364 E13.73588
G1 X144.5 Y108.023 E13.74723
G1 X144.51 Y107.62 E13.76063
G1 X144.557 Y107.077 E13.77876
G1 X144.604 Y106.741 E13.79005
G1 X144.682 Y106.367 E13.80275
G1 X144.77 Y106.01 E13.81498
G1 X144.885 Y105.644 E13.82774
G1 X145.006 Y105.317 E13.83934
G1 X145.161 Y104.946 E13.85271
G1 X145.318 Y104.63 E13.86445
G1 X145.566 Y104.179 E13.88157
G1 X145.885 Y103.705 E13.90057
G1 X146.223 Y103.268 E13.91894
G1 X146.451 Y103.012 E13.93035
G1 X146.7 Y102.751 E13.94234
G1 X147.111 Y102.378 E13.9608
G1 X147.403 Y102.146 E13.97321
G1 X147.71 Y101.923 E13.98583
G1 X148.176 Y101.629 E14.00415
G1 X148.504 Y101.45 E14.01658
G1 X148.819 Y101.3 E14.02819
G1 X149.143 Y101.161 E14.03991
G1 X149.515 Y101.027 E14.05306
G1 X149.857 Y100.921 E14.06497
G1 X150.229 Y100.831 E14.0777
G1 X150.741 Y100.731 E14.09505
G1 X151.11 Y100.686 E14.10742
G1 X151.485 Y100.656 E14.11993
G1 X151.851 Y100.648 E14.13211
G1 X152.206 Y100.656 E14.14392
G1 X152.775 Y100.706 E14.16291
G1 X153.091 Y100.754 E14.17354
G1 X153.501 Y100.835 E14.18744
G1 X153.845 Y100.926 E14.19928
G1 X154.157 Y101.022 E14.21014
G1 X154.703 Y101.224 E14.2295
G1 X155.054 Y101.383 E14.24232
G1 X155.356 Y101.541 E14.25365
G1 X155.699 Y101.737 E14.26679
G1 X156.152 Y102.042 E14.28496
G1 X156.541 Y102.338 E14.30121
G1 X156.992 Y102.746 E14.32144
G1 X157.252 Y103.016 E14.33391
G1 X157.49 Y103.289 E14.34595
G1 X157.707 Y103.557 E14.35742
G1 X157.929 Y103.872 E14.37024
G1 X158.133 Y104.183 E14.38261
G1 X158.38 Y104.627 E14.39951
G1 X158.542 Y104.96 E14.41183
G1 X158.687 Y105.305 E14.42427
G1 X158.811 Y105.638 E14.43609
G1 X158.922 Y106.003 E14.44878
G1 X159.018 Y106.382 E14.46179
G1 X159.114 Y106.877 E14.47856
G1 X159.162 Y107.269 E14.49169
G1 X159.192 Y107.637 E14.50397
G1 X159.201 Y107.992 E14.51578
G1 X159.19 Y108.372 E14.52843
G1 X159.142 Y108.927 E14.54696
G1 X159.089 Y109.27 E14.5585
G1 X159.014 Y109.641 E14.57109
G1 X158.922 Y109.999 E14.58338
G1 X158.826 Y110.307 E14.59411
G1 X158.624 Y110.847 E14.61329
G1 X158.468 Y111.192 E14.62588
G1 X158.316 Y111.492 E14.63707
G1 X158.109 Y111.847 E14.65074
G1 X157.812 Y112.295 E14.66861
G1 X157.504 Y112.695 E14.6854
G1 X157.229 Y113.005 E14.69919
G1 X156.869 Y113.365 E14.71612
G1 X156.57 Y113.631 E14.72943
G1 X156.318 Y113.835 E14.74021
G1 X155.975 Y114.078 E14.7542
G1 X155.523 Y114.365 E14.772
G1 X155.196 Y114.546 E14.78443
G1 X154.904 Y114.686 E14.79521
G1 X154.536 Y114.841 E14.80849
G1 X154.181 Y114.969 E14.82104
G1 X153.877 Y115.065 E14.83164
G1 X153.466 Y115.17 E14.84575
G1 X152.932 Y115.268 E14.86381
G1 X152.229 Y115.34 E14.88731
G1 X151.833 Y115.348 E14.90049
G1 X151.483 Y115.34 E14.91213
G1 F2400 E14.11213
G0 F18000 X142.793 Y88.59
G1 F2400 E14.91213
G1 F6000 X142.286 Y88.477 E14.92941
G1 X141.926 Y88.303 E14.9427
G1 X141.591 Y88.056 E14.95655
G1 X141.329 Y87.772 E14.9694
G1 X141.138 Y87.478 E14.98106
G1 X140.909 Y86.881 E15.00233
G1 X140.903 Y86.287 E15.02209
G1 X141.018 Y85.78 E15.03938
G1 X141.21 Y85.404 E15.05342
G1 X141.507 Y84.986 E15.07047
G1 X142.033 Y84.628 E15.09164
G1 X142.62 Y84.404 E15.11253
G1 X143.218 Y84.404 E15.13242
G1 X143.707 Y84.517 E15.14911
G1 X144.063 Y84.682 E15.16217
G1 X144.512 Y85.01 E15.18066
G1 X144.867 Y85.53 E15.2016
G1 X145.092 Y86.121 E15.22263
G1 X145.09 Y86.708 E15.24216
G1 X145.011 Y87.098 E15.25539
G1 X144.82 Y87.548 E15.27165
G1 X144.492 Y88.011 E15.29052
G1 X143.964 Y88.366 E15.31169
G1 X143.368 Y88.592 E15.33289
G1 X142.793 Y88.59 E15.35201
G1 F2400 E14.55201
G0 F18000 X123.923 Y93.748
G1 F2400 E15.35201
G1 F6000 X123.252 Y93.69 E15.37441
G1 X122.554 Y93.34 E15.40038
G1 X122.125 Y92.851 E15.42202
G1 X121.814 Y92.257 E15.44432
G1 X121.728 Y91.56 E15.46768
G1 X121.869 Y90.937 E15.48892
G1 X122.157 Y90.36 E15.51037
G1 X122.562 Y89.989 E15.52864
G1 X122.891 Y89.773 E15.54173
G1 X123.471 Y89.556 E15.56233
G1 X124.064 Y89.556 E15.58205
G1 X124.562 Y89.671 E15.59905
G1 X125.131 Y89.958 E15.62024
G1 X125.545 Y90.408 E15.64058
G1 X125.725 Y90.696 E15.65188
G1 X125.939 Y91.271 E15.67228
G1 X125.935 Y91.879 E15.69251
G1 X125.829 Y92.366 E15.70908
G1 X125.546 Y92.929 E15.73004
G1 X124.97 Y93.455 E15.75599
G1 X124.367 Y93.69 E15.77751
G1 X123.923 Y93.748 E15.7924
G0 F18000 X123.87 Y93.348
;TYPE:WALL-OUTER
G1 F6000 X123.387 Y93.304 E15.80821
G1 X122.81 Y93.02 E15.82917
G1 X122.469 Y92.645 E15.8457
G1 X122.201 Y92.135 E15.86447
G1 X122.133 Y91.573 E15.88293
G1 X122.247 Y91.069 E15.89977
G1 X122.468 Y90.626 E15.91591
G1 X122.832 Y90.284 E15.93219
G1 X123.093 Y90.124 E15.94216
G1 X123.542 Y89.956 E15.95779
G1 X124.039 Y89.96 E15.97399
G1 X124.428 Y90.047 E15.98698
G1 X124.895 Y90.288 E16.00411
G1 X125.225 Y90.648 E16.02003
G1 X125.372 Y90.893 E16.02934
G1 X125.54 Y91.343 E16.045
G1 X125.539 Y91.824 E16.06068
G1 X125.447 Y92.234 E16.07437
G1 X125.221 Y92.68 E16.09067
G1 X124.76 Y93.104 E16.11109
G1 X124.259 Y93.301 E16.12863
G1 X123.87 Y93.348 E16.14141
G1 F2400 E15.34141
G0 F18000 X142.832 Y88.192
G1 F2400 E16.14141
G1 F6000 X142.417 Y88.096 E16.15529
G1 X142.158 Y87.976 E16.16459
G1 X141.876 Y87.775 E16.17588
G1 X141.645 Y87.527 E16.18693
G1 X141.488 Y87.285 E16.19633
G1 X141.305 Y86.792 E16.21347
G1 X141.309 Y86.307 E16.22928
G1 X141.407 Y85.897 E16.24302
G1 X141.536 Y85.636 E16.25251
G1 X141.793 Y85.274 E16.26698
G1 X142.199 Y84.998 E16.28298
G1 X142.697 Y84.806 E16.30038
G1 X143.193 Y84.809 E16.31655
G1 X143.597 Y84.906 E16.33009
G1 X143.837 Y85.018 E16.33872
G1 X144.223 Y85.295 E16.35421
G1 X144.498 Y85.699 E16.37014
G1 X144.69 Y86.198 E16.38757
G1 X144.692 Y86.668 E16.40289
G1 X144.629 Y86.979 E16.41323
G1 X144.464 Y87.359 E16.42673
G1 X144.205 Y87.723 E16.44129
G1 X143.759 Y88.02 E16.45876
G1 X143.292 Y88.191 E16.47497
G1 X142.832 Y88.192 E16.48996
G1 F2400 E15.68996
G0 F18000 X151.498 Y114.94
G1 F2400 E16.48996
G1 F6000 X150.978 Y114.894 E16.50698
G1 X150.643 Y114.844 E16.51802
G1 X150.288 Y114.771 E16.52983
G1 X149.951 Y114.687 E16.54115
G1 X149.625 Y114.583 E16.55231
G1 X149.15 Y114.403 E16.56886
G1 X148.844 Y114.266 E16.57979
G1 X148.531 Y114.105 E16.59126
G1 X148.226 Y113.928 E16.60276
G1 X147.785 Y113.639 E16.61994
G1 X147.385 Y113.329 E16.63644
G1 X146.997 Y112.977 E16.65352
G1 X146.749 Y112.724 E16.66506
G1 X146.524 Y112.466 E16.67622
G1 X146.304 Y112.192 E16.68767
G1 X146.009 Y111.773 E16.70438
G1 X145.831 Y111.483 E16.71547
G1 X145.515 Y110.866 E16.73806
G1 X145.383 Y110.552 E16.74917
G1 X145.26 Y110.211 E16.76098
G1 X145.162 Y109.892 E16.77186
G1 X145.067 Y109.53 E16.78406
G1 X144.973 Y109.027 E16.80074
G1 X144.936 Y108.704 E16.81133
G1 X144.908 Y108.337 E16.82333
G1 X144.9 Y108.013 E16.8339
G1 X144.908 Y107.654 E16.8456
G1 X144.953 Y107.132 E16.86268
G1 X144.998 Y106.809 E16.87331
G1 X145.152 Y106.128 E16.89607
G1 X145.26 Y105.782 E16.90788
G1 X145.375 Y105.471 E16.91869
G1 X145.52 Y105.123 E16.93098
G1 X145.668 Y104.823 E16.94188
G1 X145.917 Y104.372 E16.95867
G1 X146.201 Y103.949 E16.97528
G1 X146.522 Y103.534 E16.99238
G1 X146.985 Y103.031 E17.01466
G1 X147.375 Y102.679 E17.03179
G1 X147.638 Y102.47 E17.04274
G1 X147.94 Y102.251 E17.0549
G1 X148.368 Y101.98 E17.07141
G1 X148.677 Y101.811 E17.08289
G1 X148.977 Y101.668 E17.09372
G1 X149.296 Y101.531 E17.10504
G1 X149.635 Y101.409 E17.11678
G1 X149.952 Y101.309 E17.12761
G1 X150.305 Y101.223 E17.13946
G1 X150.811 Y101.125 E17.15626
G1 X151.143 Y101.084 E17.16716
G1 X151.495 Y101.056 E17.17867
G1 X151.841 Y101.048 E17.18995
G1 X152.19 Y101.056 E17.20133
G1 X152.715 Y101.102 E17.21851
G1 X153.039 Y101.151 E17.22919
G1 X153.399 Y101.222 E17.24115
G1 X153.727 Y101.308 E17.2522
G1 X154.05 Y101.408 E17.26322
G1 X154.539 Y101.589 E17.28022
G1 X154.869 Y101.738 E17.29202
G1 X155.159 Y101.889 E17.30268
G1 X155.476 Y102.069 E17.31456
G1 X155.91 Y102.36 E17.33159
G1 X156.311 Y102.667 E17.34805
G1 X156.704 Y103.024 E17.36536
G1 X156.951 Y103.28 E17.37695
G1 X157.18 Y103.541 E17.38827
G1 X157.38 Y103.788 E17.39863
G1 X157.783 Y104.378 E17.42192
G1 X158.037 Y104.833 E17.4389
G1 X158.185 Y105.142 E17.45007
G1 X158.312 Y105.445 E17.46078
G1 X158.44 Y105.79 E17.47277
G1 X158.534 Y106.102 E17.4834
G1 X158.625 Y106.458 E17.49537
G1 X158.723 Y106.967 E17.51227
G1 X158.764 Y107.303 E17.5233
G1 X158.792 Y107.647 E17.53455
G1 X158.801 Y107.992 E17.5458
G1 X158.792 Y108.338 E17.55708
G1 X158.746 Y108.867 E17.57439
G1 X158.697 Y109.192 E17.5851
G1 X158.626 Y109.542 E17.59674
G1 X158.54 Y109.88 E17.60811
G1 X158.44 Y110.198 E17.61898
G1 X158.259 Y110.683 E17.63585
G1 X158.111 Y111.011 E17.64758
G1 X157.953 Y111.321 E17.65892
G1 X157.775 Y111.627 E17.67046
G1 X157.495 Y112.051 E17.68702
G1 X157.187 Y112.451 E17.70348
G1 X156.946 Y112.722 E17.7153
G1 X156.577 Y113.09 E17.73228
G1 X156.318 Y113.32 E17.74357
G1 X156.056 Y113.532 E17.75456
G1 X155.76 Y113.741 E17.76637
G1 X155.329 Y114.015 E17.78302
G1 X155.023 Y114.185 E17.79443
G1 X154.722 Y114.329 E17.8053
